build/redact/HideLeftPanelOutline.svg

<svg xmlns="http://www.w3.org/2000/svg" fill="none" viewBox="0 0 24 24" focusable="false"><path d="M0 0H24V24H0z"/><path fill="#74767B" fill-rule="evenodd" d="M10.1 16.7026C10.3497 16.9609 10.343 17.373 10.0851 17.6231C9.82717 17.8731 9.41566 17.8664 9.16598 17.6081L4.18297 12.4528C3.93901 12.2004 3.93901 11.7996 4.18297 11.5472L9.16598 6.39189C9.41566 6.13357 9.82717 6.12687 10.0851 6.37692C10.343 6.62697 10.3497 7.03908 10.1 7.2974L6.18263 11.3503L16.8215 11.3503C17.1805 11.3503 17.4715 11.6417 17.4715 12.0013C17.4715 12.3608 17.1805 12.6522 16.8215 12.6522L6.18507 12.6522L10.1 16.7026ZM18.7 19.3203C18.7 19.6957 18.991 20 19.35 20C19.709 20 20 19.6957 20 19.3203L20 4.67974C20 4.30433 19.709 4 19.35 4C18.991 4 18.7 4.30433 18.7 4.67974L18.7 19.3203Z"/></svg>

<svg xmlns="http://www.w3.org/2000/svg" fill="none" viewBox="0 0 24 24" focusable="false"><path fill="#74767B" fill-rule="evenodd" d="M10.1 16.7c.24.26.24.67-.02.92s-.67.24-.92-.02l-4.98-5.15a.646.646 0 0 1 0-.91l4.98-5.15c.25-.26.66-.27.92-.02s.26.66.02.92l-3.92 4.06h10.64c.36 0 .65.29.65.65s-.29.65-.65.65H6.18zm8.6 2.62c0 .37.29.68.65.68.35 0 .65-.31.65-.68V4.67c0-.37-.3-.67-.65-.67-.36 0-.65.3-.65.67z"/></svg>
